!!!PDT:	1923
!!!LANG: Non-Tone
!!!LING_GROUP: Siouan
!!!REG: Dakotas
!!!COM: Anon.
!!!OTL: Take Me to the Sioux
!!!ODT: <1918//
!!!MPN: Obsitamato [Bear-on-the-Flat, Flat Bear]
!!!MLC: Fort Berthold Reservation, North Dakota, United States of America
!! Song was recorded during either the summer of 1912, 1915, or 1918.
!!!AGN: monody
!!!SOCIAL_FUNCTION: Mandan and Hidatsa War Songs
!!!AMT: irregular
!!!RWG: Transcribed pitches, durations, and meters are only approximate.
!! Drum not recorded.
**kern
*ICvox
*Imale
*clefF4
*k[b-e-]
*M2/4
*MM84
=1-
4e-
8.e-
16d
=2
16e-
8.d
4B-
=3
4e-
8.e-
16d
*M3/4
=4
16e-
8.d
8.B-
16B-
4B-
*M2/4
=5
16d
8.B-
8.G
16G
*M3/4
=6
16d
8.B-
4B-
4B-
=7
8.B-
16e-
4B-
8.B-
16G
*M2/4
=8
4B-
(12G
12F
12G)
=9
4F
4F
=10
16G
8.F
4D
=11
4G
8.G
16F
=12
16G
8.F
8.D
16D
=13
4.D
8D
*M3/4
=14
2.D
*M2/4
=15
16d
8.B-
8.G
16G
*M3/4
=16
16d
8.B-
4B-
4B-
=17
8.B-
16d
4B-
(8.B-
16G)
*M2/4
=18
8.B-
16B-
(12G
12F)
12G
=19
4F
4F
=20
(16G
8.F)
4D
=21
8.G
16G
8.G
16F
=22
16G
8.F
8.D
16D
=23
2D
==
*-
!!!CNT: Mandan
!!!TXO: Mandan
!!!OCY: United States
!!!OCL: Frances Densmore
!!!YOR: Frances Densmore, "Mandan and Hidatsa Music",
!!!YOR: Bulletin 80, page 151, No. 82
!!!PPR: Smithsonian Institution, Bureau of American Ethnology
!!!PPR: Government Printing Office
!!!PDT: 1923
!!!PPP: Washington, DC, United States of America
!!!YEC: Electronic Copyright 2000 David Huron
!!!YER: August 2000
!!!YEN: United States of America
!!!ENC: David Huron
!!!RDT: August 18, 2000
!!!EEV: Release 1.0
!!!AIN: tom, vox
